packages/icons/svg/Outline/bulb.svg

<svg fill="none" height="24" viewBox="0 0 24 24" width="24" xmlns="http://www.w3.org/2000/svg"><path clip-rule="evenodd" d="m13 5c0 .553-.448 1-1 1s-1-.447-1-1v-2c0-.553.448-1 1-1s1 .447 1 1zm-.0001 10.4597c0-.357.191-.688.501-.867.925-.531 1.499-1.525 1.499-2.593 0-1.654-1.346-2.99997-3-2.99997s-2.99996 1.34597-2.99996 2.99997c0 1.068.574 2.062 1.49896 2.593.31.179.501.51.501.867v4.54h2zm-5.99993-3.46c0-2.75703 2.243-5.00003 5.00003-5.00003 2.757 0 5 2.243 5 5.00003 0 1.579-.754 3.062-2 3.996v4.004c0 1.103-.897 2-2 2h-2c-1.10303 0-2.00003-.897-2.00003-2v-4.004c-1.247-.934-2-2.417-2-3.996zm14.00003-.9997h-2c-.553 0-1 .447-1 1s.447 1 1 1h2c.553 0 1-.447 1-1s-.447-1-1-1zm-18 0h2c.552 0 1 .447 1 1s-.448 1-1 1h-2c-.552 0-1-.447-1-1s.448-1 1-1zm4.65962-4.582-1.439-1.39c-.397-.383-1.029-.371-1.414.026-.384.396-.373 1.03.024 1.414l1.439 1.389c.195.188.445.281.695.281.262 0 .523-.103.719-.306.384-.396.373-1.03-.024-1.414zm10.11988-1.38827c.396-.383 1.032-.372 1.413.024.384.396.373 1.03-.024 1.413l-1.439 1.39c-.193.187-.444.281-.694.281-.262 0-.524-.103-.719-.306-.384-.396-.373-1.03.024-1.413z" fill="#6b7280" fill-rule="evenodd"/></svg>

<svg width="24" height="24" viewBox="0 0 24 24" fill="none" xmlns="http://www.w3.org/2000/svg">
<g id="Icon/Outline/bulb">
<path id="Mask" fill-rule="evenodd" clip-rule="evenodd" d="M13 5C13 5.553 12.552 6 12 6C11.448 6 11 5.553 11 5V3C11 2.447 11.448 2 12 2C12.552 2 13 2.447 13 3V5ZM13 15.4598C13 15.1028 13.191 14.7718 13.501 14.5928C14.426 14.0618 15 13.0678 15 11.9998C15 10.3458 13.654 8.9998 12 8.9998C10.346 8.9998 9 10.3458 9 11.9998C9 13.0678 9.574 14.0618 10.499 14.5928C10.809 14.7718 11 15.1028 11 15.4598V19.9998H13V15.4598ZM7 11.9998C7 9.2428 9.243 6.9998 12 6.9998C14.757 6.9998 17 9.2428 17 11.9998C17 13.5788 16.246 15.0618 15 15.9958V19.9998C15 21.1028 14.103 21.9998 13 21.9998H11C9.897 21.9998 9 21.1028 9 19.9998V15.9958C7.753 15.0618 7 13.5788 7 11.9998ZM21 11H19C18.447 11 18 11.447 18 12C18 12.553 18.447 13 19 13H21C21.553 13 22 12.553 22 12C22 11.447 21.553 11 21 11ZM3 11H5C5.552 11 6 11.447 6 12C6 12.553 5.552 13 5 13H3C2.448 13 2 12.553 2 12C2 11.447 2.448 11 3 11ZM7.6597 6.418L6.2207 5.028C5.8237 4.645 5.1917 4.657 4.8067 5.054C4.4227 5.45 4.4337 6.084 4.8307 6.468L6.2697 7.857C6.4647 8.045 6.7147 8.138 6.9647 8.138C7.2267 8.138 7.4877 8.035 7.6837 7.832C8.0677 7.436 8.0567 6.802 7.6597 6.418ZM17.7794 5.0297C18.1754 4.6467 18.8114 4.6577 19.1924 5.0537C19.5764 5.4497 19.5654 6.0837 19.1684 6.4667L17.7294 7.8567C17.5364 8.0437 17.2854 8.1377 17.0354 8.1377C16.7734 8.1377 16.5114 8.0347 16.3164 7.8317C15.9324 7.4357 15.9434 6.8017 16.3404 6.4187L17.7794 5.0297Z" fill="#000000"/>
</g>
</svg>
